X: 15
T:McQuillen's Squeezebox
% Nottingham Music Database
S:Chris's Dad, via EF
M:4/4
L:1/4
K:C
[EG][FA] |"C"[G3/2c3/2][A/2c/2] "G7"[GB][FG]|"C"[EG][Gc] "F"[cf][Ac]|"C"[G3/2c3/2][A/2c/2] "G7"[GB][FG]|"C"[E2G2] [DF][EG]|"Dm"[F3/2A3/2][G/2B/2] [FA][EG]|\
"G7"[DF][GB] [Bd][df]|
"C"[c3/2e3/2][d/2f/2] "F"[cf][Ac]|"G7"[GB][FG] [EG][FG]|"C"[G3/2c3/2][A/2c/2] "G7"[GB][FG]|"C"[EG][Gc] "F"[cf][Ac]|"C"[G3/2c3/2][A/2c/2] "G7"[GB][FG]|\
"C"[E2G2] [DF][EG]|
"Dm"[F3/2A3/2][G/2B/2] [FA][EG]|"G7"[DF][GB] [Bd][df]|"C"[c3/2e3/2][d/2f/2] "G7"[ce][Bd]|"C"[ce][Bd] "G7"[ce][df]|"C"[e3/2g3/2][f/2a/2] "G7"[eg][df]|\
"C"[ce][Gc] "G7"[ce][df]|
"C"[e3/2g3/2][f/2a/2] "G7"[eg][df]|"C"[c2e2] [Bd][ce]|"Dm"[d3/2f3/2][e/2g/2] [fa][eg]|"G"[dg][GB] [Bd][ce]|"Dm"[d3/2f3/2][e/2g/2] [fa][eg]|"G7"[d2f2] [ce][df]|\
"C"[e3/2g3/2][f/2a/2] "G7"[eg][df]|
"C"[ce][Gc] "G7"[ce][df]|"C"[e3/2g3/2][f/2a/2] "G7"[eg][df]|"C"[c2e2] [Bd][ce]|"Dm"[d3/2f3/2][e/2g/2] [fa][eg]|"G"[dg][GB] [Bd][ce]|"Dm"[df][ce] "G7"[eg][df]|\
"C"[c2e2] ||


